SF_Symbols/stairs.svg

<?xml version="1.0" encoding="UTF-8"?>
<svg xmlns="http://www.w3.org/2000/svg" xmlns:xlink="http://www.w3.org/1999/xlink" width="24" height="24" viewBox="0 0 24 24" version="1.1">
<g id="surface1">
<path style=" stroke:none;fill-rule:nonzero;fill:rgb(100%,100%,100%);fill-opacity:1;" d="M 1.652344 23.824219 C 1.910156 23.824219 2.132812 23.730469 2.320312 23.542969 C 2.507812 23.355469 2.601562 23.132812 2.601562 22.875 L 2.601562 18.925781 L 6.703125 18.925781 C 7.039062 18.925781 7.316406 18.816406 7.535156 18.597656 C 7.753906 18.378906 7.863281 18.101562 7.863281 17.765625 L 7.863281 13.664062 L 11.964844 13.664062 C 12.300781 13.664062 12.578125 13.554688 12.796875 13.335938 C 13.023438 13.117188 13.136719 12.839844 13.136719 12.503906 L 13.136719 8.402344 L 17.226562 8.402344 C 17.5625 8.402344 17.839844 8.292969 18.058594 8.074219 C 18.285156 7.847656 18.398438 7.570312 18.398438 7.242188 L 18.398438 3.128906 L 22.335938 3.128906 C 22.601562 3.128906 22.824219 3.039062 23.003906 2.859375 C 23.191406 2.671875 23.285156 2.449219 23.285156 2.191406 C 23.285156 1.933594 23.191406 1.710938 23.003906 1.523438 C 22.824219 1.335938 22.601562 1.242188 22.335938 1.242188 L 17.671875 1.242188 C 17.335938 1.242188 17.058594 1.355469 16.839844 1.582031 C 16.621094 1.800781 16.511719 2.078125 16.511719 2.414062 L 16.511719 6.515625 L 12.410156 6.515625 C 12.074219 6.515625 11.796875 6.625 11.578125 6.84375 C 11.359375 7.0625 11.25 7.339844 11.25 7.675781 L 11.25 11.777344 L 7.136719 11.777344 C 6.808594 11.777344 6.53125 11.890625 6.304688 12.117188 C 6.085938 12.335938 5.976562 12.613281 5.976562 12.949219 L 5.976562 17.039062 L 1.875 17.039062 C 1.539062 17.039062 1.261719 17.152344 1.042969 17.378906 C 0.824219 17.597656 0.714844 17.875 0.714844 18.210938 L 0.714844 22.875 C 0.714844 23.132812 0.804688 23.355469 0.984375 23.542969 C 1.171875 23.730469 1.394531 23.824219 1.652344 23.824219 Z M 1.652344 23.824219 "/>
</g>
</svg>

<svg xmlns="http://www.w3.org/2000/svg" width="24" height="24"><path style="stroke:none;fill-rule:nonzero;fill:#fff;fill-opacity:1" d="M1.652 23.824c.258 0 .48-.094.668-.281a.9.9 0 0 0 .282-.668v-3.95h4.101c.336 0 .613-.109.832-.327.219-.22.328-.496.328-.832v-4.102h4.102c.336 0 .613-.11.832-.328.226-.219.34-.496.34-.832V8.402h4.09c.335 0 .613-.109.832-.328.226-.226.34-.504.34-.832V3.13h3.937c.266 0 .488-.09.668-.27a.894.894 0 0 0 .281-.668.906.906 0 0 0-.281-.668.894.894 0 0 0-.668-.28h-4.664c-.336 0-.613.112-.832.339a1.13 1.13 0 0 0-.328.832v4.102H12.41c-.336 0-.613.109-.832.328a1.13 1.13 0 0 0-.328.832v4.101H7.137c-.328 0-.606.114-.832.34a1.146 1.146 0 0 0-.328.832v4.09H1.875c-.336 0-.613.113-.832.34a1.13 1.13 0 0 0-.328.832v4.664c0 .258.09.48.27.668.187.187.41.281.667.281Zm0 0"/></svg>
